src/cart/components/img/love.svg

<?xml version="1.0" encoding="UTF-8"?>
<svg width="50px" height="50px" viewBox="0 0 50 50" version="1.1" xmlns="http://www.w3.org/2000/svg" xmlns:xlink="http://www.w3.org/1999/xlink">
    <!-- Generator: Sketch 48.2 (47327) - http://www.bohemiancoding.com/sketch -->
    <title>Artboard 3</title>
    <desc>Created with Sketch.</desc>
    <defs></defs>
    <g id="2018011811" stroke="none" stroke-width="1" fill="none" fill-rule="evenodd">
        <g id="Artboard-3" fill="#B2B2B2" fill-rule="nonzero">
            <g id="Group-59">
                <path d="M24.999333,45.815 C13.521333,45.815 4.179333,36.477 4.179333,24.999 C4.179333,13.521 13.521333,4.18 24.999333,4.18 C36.478333,4.18 45.815333,13.521 45.815333,24.999 C45.815333,36.477 36.477333,45.815 24.999333,45.815 M24.999333,0 C11.211333,0 0.000333,11.212 0.000333,24.999 C0.000333,38.781 11.211333,50 24.999333,50 C38.780333,50 50.000333,38.781 50.000333,24.999 C50.000333,11.212 38.780333,0 24.999333,0" id="Fill-1"></path>
                <path d="M16.428333,24.264 C17.280333,24.264 18.132333,23.935 18.777333,23.29 L22.307333,19.769 C23.604333,18.466 23.604333,16.362 22.307333,15.065 C21.004333,13.768 18.902333,13.768 17.603333,15.065 L16.428333,16.24 L15.254333,15.065 C13.947333,13.768 11.845333,13.768 10.550333,15.065 C9.254333,16.362 9.254333,18.466 10.550333,19.769 L14.079333,23.29 C14.725333,23.935 15.577333,24.264 16.428333,24.264" id="Fill-3"></path>
                <path d="M35.196333,14.77 L33.983333,15.976 L32.765333,14.77 C31.430333,13.429 29.252333,13.429 27.921333,14.77 C26.571333,16.11 26.571333,18.283 27.921333,19.624 L31.553333,23.261 C32.226333,23.928 33.102333,24.265 33.983333,24.265 C34.862333,24.265 35.738333,23.928 36.412333,23.261 L40.045333,19.624 C41.392333,18.281 41.392333,16.11 40.045333,14.77 C38.708333,13.429 36.530333,13.429 35.196333,14.77" id="Fill-5"></path>
                <path d="M16.132333,29.981 C15.316333,29.981 14.579333,30.454 14.236333,31.184 C13.891333,31.916 13.997333,32.773 14.518333,33.401 C17.109333,36.556 20.931333,38.363 25.006333,38.363 C29.066333,38.363 32.895333,36.562 35.485333,33.43 C35.995333,32.804 36.099333,31.934 35.756333,31.201 C35.410333,30.471 34.676333,29.995 33.874333,29.995 L16.132333,29.981 Z" id="Fill-7"></path>
            </g>
        </g>
    </g>
</svg>

<svg height="50" viewBox="0 0 50 50" width="50" xmlns="http://www.w3.org/2000/svg"><g fill="#b2b2b2"><path d="m24.999333 45.815c-11.478 0-20.82-9.338-20.82-20.816s9.342-20.819 20.82-20.819c11.479 0 20.816 9.341 20.816 20.819s-9.338 20.816-20.816 20.816m0-45.815c-13.788 0-24.999 11.212-24.999 24.999 0 13.782 11.211 25.001 24.999 25.001 13.781 0 25.001-11.219 25.001-25.001 0-13.787-11.22-24.999-25.001-24.999"/><path d="m16.428333 24.264c.852 0 1.704-.329 2.349-.974l3.53-3.521c1.297-1.303 1.297-3.407 0-4.704-1.303-1.297-3.405-1.297-4.704 0l-1.175 1.175-1.174-1.175c-1.307-1.297-3.409-1.297-4.704 0-1.296 1.297-1.296 3.401 0 4.704l3.529 3.521c.646.645 1.498.974 2.349.974"/><path d="m35.196333 14.77-1.213 1.206-1.218-1.206c-1.335-1.341-3.513-1.341-4.844 0-1.35 1.34-1.35 3.513 0 4.854l3.632 3.637c.673.667 1.549 1.004 2.43 1.004.879 0 1.755-.337 2.429-1.004l3.633-3.637c1.347-1.343 1.347-3.514 0-4.854-1.337-1.341-3.515-1.341-4.849 0"/><path d="m16.132333 29.981c-.816 0-1.553.473-1.896 1.203-.345.732-.239 1.589.282 2.217 2.591 3.155 6.413 4.962 10.488 4.962 4.06 0 7.889-1.801 10.479-4.933.51-.626.614-1.496.271-2.229-.346-.73-1.08-1.206-1.882-1.206z"/></g></svg>
